X:1
T:Title
%%score ( 1 2 ) { 3 | 4 }
L:1/8
Q:1/4=108
M:4/4
K:Ab
V:1 treble nm="Grand Piano, Soprano"
V:2 treble 
V:3 bass nm="Choir Pad, O Speak to Me, Dear Jesus"
V:4 bass 
V:1
 [CE]2 [Ec]2- [Ec][DB] [CA]2 | [DF]2 [CE]2 [EA]4 | [EA]2 [EB]2- [EB][EB] [EA]2 | [EB]2 [Ec]4 z2 | %4
w: By~J.~W.~Pratt * * * *||||
 z4 z2 .B2 | [EG][DF] [DF]2 [CE]2 [CE]2 | E>A [DG]2- [DG][DG] [DF]2 | [DG]2 [CA]4 z2 | %8
w: ||||
 E2 [EB]2- [EB][DG] [CE]2 | [B,D]2 [A,C]2 [CE]4 | [Ec]2 [EB]2- [EB][FA] [EG]2 | .c2 z2 z4 | %12
w: ||||
 [Ed]2 [Ec]2- [Ec][Ec] [EB]2 | [EA]2 [EG]2 [DF]4 | [DF]2 [CE]2- [CE][Ec] [DB]2- | %15
w: |||
 [DB][B,G] [CA]6- | [CA]2 z2 z4 |] %17
w: ||
V:2
 x8 | x8 | x8 | x8 | [EA]2 [FA]2- [FA]FF-[FA] | x8 | x8 | x8 | x8 | x8 | x8 | =D-[DB] [EB]4 z2 | %12
 x8 | x8 | x8 | x8 | x8 |] %17
V:3
 A,2 A,2- A,A, A,2 | A,2 A,2 C4 | A,2 G,2- G,G, A,2 | G,2 A,4 z2 | A,2 A,2- A,A, A,2 | %5
 A,2 A,2 A,2 A,2 | A,2 B,2- B,B, B,2 | E,2 E,4 z2 | E,2 G,2- G,G, G,2 | G,2 A,2 A,4 | %10
 A,2 B,2- B,C B,2 | A,2 G,4 z2 | G,2 A,2- A,A, G,2 | A,2 A,2 A,4 | A,2 A,2- A,A, G,2- | G,E, E,6- | %16
 E,2 z2 z4 |] %17
V:4
 A,,2 A,,2- A,,A,, A,,2 | A,,2 A,,2 A,,4 | C,2 E,2- E,E, C,2 | E,2 z2 z4 | C,2 D,2- D,D, D,2 | %5
 D,2 A,,2 A,,2 A,,2 | C,2 E,2- E,E, E,2 | z2 A,,4 z2 | z2 E,2- E,E, E,2 | E,2 A,,2 A,,4 | %10
 z2 G,2- G,A, z2 | B,,2 E,4 z2 | E,2 A,,2- A,,A,, B,,2 | C,2 D,2 D,4 | D,2 E,2- E,E, E,2- | %15
 E, z A,,6- | A,,2 z2 z4 |] %17

